X:156
T:Cwm Rhondda
T:Guide Me O Thou Great Jehovah
Z:Jack Campin, http://www.campin.me.uk/
F:Jack Campin's Nine-Note Tunebook
% last edit 03-02-2013
G:Welsh hymn
M:4/4
L:1/8
Q:1/4=90
K:G
   D2 E2 D3  G|GF GA B2 A2|\
[1 B2 G2 E2 c2|B2 A2 G4  :|
[2 B2 c2 d2 cA|G2 F2 G4  ||\
   A3  B cB A2|B3  c dc B2|
   d3  d dd dd|d8         |\
   d3  c Bd cA|G2 F2 G4  |]

